vendor/shopware/storefront/Resources/app/storefront/dist/assets/icon/default/euro.svg

<svg xmlns="http://www.w3.org/2000/svg" width="24" height="24" viewBox="0 0 24 24">
  <path fill="#758CA3" fill-rule="evenodd" d="M3.05492878,13 C3.01863331,12.6716661 3,12.3380091 3,12 C3,11.6619909 3.01863331,11.3283339 3.05492878,11 L2,11 C1.44771525,11 1,10.5522847 1,10 C1,9.44771525 1.44771525,9 2,9 L3.51211712,9 C4.74762635,5.50442288 8.08134352,3 12,3 C13.5834474,3 15.1095006,3.41031856 16.4560029,4.17895174 C16.9356425,4.45274774 17.1025118,5.06352802 16.8287158,5.54316767 C16.5549198,6.02280731 15.9441395,6.18967655 15.4644998,5.91588055 C14.4180486,5.31852758 13.2333836,5 12,5 C9.20760404,5 6.7970951,6.63505267 5.67363116,9 L10,9 C10.5522847,9 11,9.44771525 11,10 C11,10.5522847 10.5522847,11 10,11 L5.07088886,11 C5.02417196,11.326603 5,11.6604787 5,12 C5,12.3395213 5.02417196,12.673397 5.07088886,13 L10,13 C10.5522847,13 11,13.4477153 11,14 C11,14.5522847 10.5522847,15 10,15 L5.67363116,15 C6.7970951,17.3649473 9.20760404,19 12,19 C13.2087081,19 14.3707302,18.6941236 15.4021079,18.1193123 C15.8845291,17.8504476 16.4935666,18.0235693 16.7624314,18.5059905 C17.0312961,18.9884116 16.8581745,19.5974492 16.3757533,19.866314 C15.0485633,20.6059884 13.5517163,21 12,21 C8.08134352,21 4.74762635,18.4955771 3.51211712,15 L2,15 C1.44771525,15 1,14.5522847 1,14 C1,13.4477153 1.44771525,13 2,13 L3.05492878,13 Z"/>
</svg>

<svg xmlns="http://www.w3.org/2000/svg" width="24" height="24" viewBox="0 0 24 24"><path fill="#758CA3" fill-rule="evenodd" d="M3.055 13A9.099 9.099 0 0 1 3 12c0-.338.0186-.6717.055-1H2c-.5523 0-1-.4477-1-1s.4477-1 1-1h1.5121C4.7476 5.5044 8.0813 3 12 3c1.5834 0 3.1095.4103 4.456 1.179.4796.2737.6465.8845.3727 1.3642-.2738.4796-.8846.6465-1.3642.3727C14.418 5.3185 13.2334 5 12 5 9.2076 5 6.7971 6.635 5.6736 9H10c.5523 0 1 .4477 1 1s-.4477 1-1 1H5.0709A7.0594 7.0594 0 0 0 5 12c0 .3395.0242.6734.0709 1H10c.5523 0 1 .4477 1 1s-.4477 1-1 1H5.6736c1.1235 2.365 3.534 4 6.3264 4 1.2087 0 2.3707-.3059 3.4021-.8807.4824-.2689 1.0915-.0957 1.3603.3867.2689.4824.0958 1.0914-.3866 1.3603C15.0486 20.606 13.5518 21 12 21c-3.9187 0-7.2524-2.5044-8.4879-6H2c-.5523 0-1-.4477-1-1s.4477-1 1-1h1.055z"/></svg>
